X: 30832
T: Our Lady's Bungalow
R: reel
M: 4/4
K: Edorian
|:E2GE BEGE|DEFA ~d3e|f~d3 edBc|dBAF BAFD|E2GE BEGE|
DEFA dcde|f~d3 edBc|1 dBAF DEFD:|2 dBAF BEEA||
|:~B3e gBBA|B2eB defg|a~f3 defa|
g2fg edBd|e~B3 g~B3|e~B3 defg|
afge fdef|1 dBAF BEEA:|2 dBAF BAGF:|

